icons/thumb-up-outline.svg

<svg xmlns="http://www.w3.org/2000/svg" width="24" height="24" viewBox="0 0 24 24">
  <path d="M5.82642928,22 C4.27481966,22 2.97922579,20.8168447 2.83874966,19.2716072 L2.83874966,19.2716072 L2.20238602,12.2716072 C2.05238148,10.6215573 3.26840851,9.16232492 4.9184584,9.01232038 C5.00876143,9.00411101 5.09939023,9 5.19006564,9 L5.19006564,9 L7,9 C7.55228475,9 8,8.55228475 8,8 L8,8 L8,5.82842712 C8,5.03277766 8.31607052,4.26971592 8.87867966,3.70710678 L8.87867966,3.70710678 L9.79289322,2.79289322 C10.6954136,1.89037281 12.1586883,1.89037281 13.0612087,2.79289322 C13.3149037,3.0465882 13.5060478,3.35586588 13.6195037,3.69623341 L13.6195037,3.69623341 L15.7198732,9.99900291 L19,10 C20.5976809,10 21.9036609,11.24892 21.9949073,12.8237272 L22,13 L22,19 C22,20.6568542 20.6568542,22 19,22 L19,22 Z M11.6469952,4.20710678 C11.5255234,4.08563495 11.3285786,4.08563495 11.2071068,4.20710678 L11.2071068,4.20710678 L10.2928932,5.12132034 C10.1053568,5.30885672 10,5.56321063 10,5.82842712 L10,5.82842712 L10,8 C10,9.65685425 8.65685425,11 7,11 L7,11 L5.19006564,11 L5.09952989,11.0041068 C4.54951326,11.0541083 4.14417092,11.5405191 4.19417243,12.0905357 L4.19417243,12.0905357 L4.83053607,19.0905357 C4.87736145,19.6056149 5.30922607,20 5.82642928,20 L5.82642928,20 L14,20 L14,11.163 L11.7221371,4.32868895 C11.7119569,4.2981485 11.6971296,4.2694678 11.6782587,4.2436236 L11.6782587,4.2436236 Z M19,12 L16,12 L16,20 L19,20 C19.5522847,20 20,19.5522847 20,19 L20,19 L20,13 C20,12.4477153 19.5522847,12 19,12 L19,12 Z"/>
</svg>

<svg xmlns="http://www.w3.org/2000/svg" viewBox="0 0 24 24">
  <path d="M5.83 22a3 3 0 0 1-3-2.73l-.63-7A3 3 0 0 1 5.2 9H7a1 1 0 0 0 1-1V5.83a3 3 0 0 1 .88-2.12l.91-.92a2.31 2.31 0 0 1 3.83.9l2.1 6.3L19 10a3 3 0 0 1 3 2.82V19a3 3 0 0 1-3 3zm5.82-17.8a.31.31 0 0 0-.44 0l-.92.92a1 1 0 0 0-.29.7V8a3 3 0 0 1-3 3H5.1a1 1 0 0 0-.9 1.1l.63 7a1 1 0 0 0 1 .9H14v-8.84l-2.28-6.83a.31.31 0 0 0-.04-.09zM19 12h-3v8h3a1 1 0 0 0 1-1v-6a1 1 0 0 0-1-1z"/>
</svg>
